icons/1_Primary/Snapchat.svg

<svg width="1024" height="1024" viewBox="0 0 1024 1024" fill="none" xmlns="http://www.w3.org/2000/svg">
<g clip-path="url(#clip0_2_3492)">
<path d="M512 1024C794.77 1024 1024 794.77 1024 512C1024 229.23 794.77 0 512 0C229.23 0 0 229.23 0 512C0 794.77 229.23 1024 512 1024Z" fill="#F9DE81"/>
<path d="M516.39 272.91C537.51 272.91 609.13 278.8 642.9 354.43C654.19 379.88 651.5 423.1 649.28 457.83L649.22 459.11C648.96 462.95 648.75 466.47 648.58 469.99C651.206 471.385 654.159 472.048 657.13 471.91C663.53 471.57 671.19 469.35 679.13 465.49C682.202 463.962 685.599 463.2 689.03 463.27C692.739 463.214 696.425 463.866 699.89 465.19C709.49 468.37 715.55 475.41 715.55 483.07C715.87 492.65 707.243 500.957 689.67 507.99C687.77 508.61 685.21 509.59 682.33 510.53C672.73 513.41 658.03 518.21 653.89 527.81C651.97 532.59 652.59 538.99 656.45 546.33L656.77 546.65C658.05 549.55 689.32 620.78 758.98 632.28C761.547 632.679 763.88 634.004 765.538 636.005C767.196 638.005 768.064 640.543 767.98 643.14C767.956 644.789 767.616 646.419 766.98 647.94C761.86 660.08 739.82 669.02 699.86 675.05C698.6 676.99 697.3 683.05 696.36 687.21C695.686 691.206 694.73 695.149 693.5 699.01C691.88 704.79 687.74 707.65 681.66 707.65H681.02C677.155 707.451 673.314 706.922 669.54 706.07C660.614 704.15 651.51 703.184 642.38 703.19C635.884 703.108 629.396 703.637 623 704.77C610.2 706.99 599 714.67 586.24 723.63C568.04 736.41 547.24 751.11 515.97 751.11C514.69 751.11 513.43 750.79 512.13 750.79H508.95C477.63 750.79 457.17 736.39 438.95 723.31C426.17 714.31 415.33 706.69 402.53 704.45C395.975 703.46 389.359 702.932 382.73 702.87C371.21 702.87 362.29 704.77 355.59 706.05C351.808 706.94 347.951 707.469 344.07 707.63C336.07 707.63 332.91 702.85 331.63 698.63C330.35 694.41 329.71 690.33 328.75 686.53C327.79 682.73 326.51 675.99 325.21 674.37C284.29 669.63 262.28 660.67 257.21 648.22C256.512 646.711 256.115 645.081 256.04 643.42C255.942 640.82 256.806 638.275 258.466 636.272C260.126 634.268 262.467 632.947 265.04 632.56C334.67 621.04 365.95 549.81 367.25 546.8L367.59 546.18C371.43 538.82 372.37 532.42 370.13 527.64C365.97 518.38 351.27 513.64 341.71 510.38C339.184 509.737 336.716 508.887 334.33 507.84C310.71 498.56 307.51 488 308.79 480.68C310.71 470.46 323.17 463.76 333.71 463.76C336.51 463.753 339.284 464.289 341.88 465.34C350.88 469.48 358.71 471.74 365.43 471.74C368.873 471.853 372.289 471.082 375.35 469.5L374.35 457.36C372.26 422.67 369.55 379.47 380.9 354.17C413.73 278.93 485.14 273.17 506.21 273.17L515.15 272.85H516.43L516.39 272.91Z" fill="white"/>
</g>
<defs>
<clipPath id="clip0_2_3492">
<rect width="1024" height="1024" fill="white"/>
</clipPath>
</defs>
</svg>

<svg width="1024" height="1024" fill="none" xmlns="http://www.w3.org/2000/svg"><g clip-path="url(#a)"><path d="M512 1024c282.77 0 512-229.23 512-512S794.77 0 512 0 0 229.23 0 512s229.23 512 512 512Z" fill="#F9DE81"/><path d="M516.39 272.91c21.12 0 92.74 5.89 126.51 81.52 11.29 25.45 8.6 68.67 6.38 103.4l-.06 1.28c-.26 3.84-.47 7.36-.64 10.88a16.584 16.584 0 0 0 8.55 1.92c6.4-.34 14.06-2.56 22-6.42a21.257 21.257 0 0 1 9.9-2.22 29.192 29.192 0 0 1 10.86 1.92c9.6 3.18 15.66 10.22 15.66 17.88.32 9.58-8.307 17.887-25.88 24.92-1.9.62-4.46 1.6-7.34 2.54-9.6 2.88-24.3 7.68-28.44 17.28-1.92 4.78-1.3 11.18 2.56 18.52l.32.32c1.28 2.9 32.55 74.13 102.21 85.63a10.64 10.64 0 0 1 9 10.86 12.934 12.934 0 0 1-1 4.8c-5.12 12.14-27.16 21.08-67.12 27.11-1.26 1.94-2.56 8-3.5 12.16a85.993 85.993 0 0 1-2.86 11.8c-1.62 5.78-5.76 8.64-11.84 8.64h-.64a68.016 68.016 0 0 1-11.48-1.58 128.748 128.748 0 0 0-27.16-2.88 103.605 103.605 0 0 0-19.38 1.58c-12.8 2.22-24 9.9-36.76 18.86-18.2 12.78-39 27.48-70.27 27.48-1.28 0-2.54-.32-3.84-.32h-3.18c-31.32 0-51.78-14.4-70-27.48-12.78-9-23.62-16.62-36.42-18.86a141.442 141.442 0 0 0-19.8-1.58c-11.52 0-20.44 1.9-27.14 3.18a61.399 61.399 0 0 1-11.52 1.58c-8 0-11.16-4.78-12.44-9-1.28-4.22-1.92-8.3-2.88-12.1-.96-3.8-2.24-10.54-3.54-12.16-40.92-4.74-62.93-13.7-68-26.15a12.808 12.808 0 0 1-1.17-4.8 10.578 10.578 0 0 1 9-10.86c69.63-11.52 100.91-82.75 102.21-85.76l.34-.62c3.84-7.36 4.78-13.76 2.54-18.54-4.16-9.26-18.86-14-28.42-17.26a47.57 47.57 0 0 1-7.38-2.54c-23.62-9.28-26.82-19.84-25.54-27.16 1.92-10.22 14.38-16.92 24.92-16.92 2.8-.007 5.574.529 8.17 1.58 9 4.14 16.83 6.4 23.55 6.4a20.167 20.167 0 0 0 9.92-2.24l-1-12.14c-2.09-34.69-4.8-77.89 6.55-103.19 32.83-75.24 104.24-81 125.31-81l8.94-.32h1.28l-.04.06Z" fill="#fff"/></g><defs><clipPath id="a"><path fill="#fff" d="M0 0h1024v1024H0z"/></clipPath></defs></svg>
